X:265
T: John Brady's
S: "Music of Ireland - The Big Session" (DJ Taylor)
Z: B.Black
L: 1/8
M: 4/4
R: reel
K: G
AFFE FAFE|DEFG ADFA|BGGF G3 g|fdcA d2 cA|
BGGF EFGA|BABd gdBG|DEFG AdcA|BGGF G4 :|
dg g2 bgag|fdcA d2 cA|Gg g2 fdaf|dafa gfgb|
ag g2 adfa|=fefc A=FG_B|DGBd gage|fdcA GABc|
dg g2 bgag|fdcA d2 cA|Gg g2 fdaf|dafa g3 a|
_b=f f2 gfde|=fdgf dcA=F|DGBd gage fdcA G4 ||
